X: 35
T: A Woman Welcomes the Warriors
N: Derived from pawnee35.krn
O: Oklahoma, U.S.A.
N: from Pawnee Music by Frances Densmore, 1926
Z: transcribed to **kern format by David Huron, August 2000
C: Skidi and Chaui Bands, 1919
L: 1/8
M: 2/4
Q: 1/4=88
K: D clef=bass
%%linebreak <none>
F/ F F/ F E | 
D B,A,2 | 
F,4 | 
F/ F E/ F E | 
D B,A,2 | 
F,4[M:3/4] | 
D/ D B,/ D B,A,2[M:2/4] | 
F,< F, F, F, | 
F,2F, F, | 
(F> E) (F3/ E/) | 
D> B,A,2 | 
F,4[M:3/4] | 
D/ D B,/ D B,A2[M:2/4] | 
F,< F, F, F, | 
F,2z2 |]  



